X: 178
T:Something to Sing About
M:4/4
R:reel
L:1/8
Z:Alf Warnock - alf0@rogers.com
K:G % transposed from F
B2c2|"G"d2d4e2|d4 B2G2|"C"g2g4a2|g2e2 c4|"G"d2d4e2|d4 "Em7"B2G2|"Am"B2A4G2|"D7"A4 B2c2|
"G"d2d4e2|d4 B2G2|"C"g2g4a2|g2e2 c4|"G"d4 d2e2|d4 B2G2|"D7"c2B4A2|"G"G4 f3g|
"D"a4 a3b|a2f2 e2d2-|"G"d2b2 b3=b|b2g2 d2d2|"Em"g2g4g2|"Bm"f4 g2f2|"A7"e2g2 f2e2|"D7"d2c2 B2c2|
"G"d2d4e2|d2B2 G4-|G2g2 g2a2|g2e2 c4-|c2d2 d2e2|d2B2 G4|"D7"c2B4A2|"G"G8|

